!!!COM: Bach, Johann Sebastian
!!!OTL: 124. Auf, auf, mein Herz, und du mein ganzer Sinn
!!!ONM: No. 124
!!!OCL: Erk
!!!SCA: BWV 268
!!!YOE: Riemenschneider, Albert
!!!OPR: 371 Harmonized Chorales and 69 Chorale Melodies with Figured Bass
!!!OPT: Bach Chorale Harmonizations
**harm	**root	**kern	**kern	**kern	**kern
!	!	!bass	!tenor	!alto	!sprno
*Iorgan	*Iorgan	*Iorgan	*Iorgan	*Iorgan	*Iorgan
*k[f#c#g#d#a#]	*k[f#c#g#d#a#]	*k[f#c#g#d#a#]	*k[f#c#g#d#a#]	*k[f#c#g#d#a#]	*k[f#c#g#d#a#]
*B:	*B:	*B:	*B:	*B:	*B:
*met(c)	*met(c)	*met(c)	*met(c)	*met(c)	*met(c)
*M4/4	*M4/4	*M4/4	*M4/4	*M4/4	*M4/4
*MM60	*MM60	*MM60	*MM60	*MM60	*MM60
I	4GG	8B	4f#	4b	4dd#
.	.	8A#	.	.	.
=1	=1	=1	=1	=1	=1
I	8GG	4B	8f#	8b	4dd#
vib	8EE	.	8g#	8g#	.
Vb/vi	4BB	4F##	4a#	8dd#	4dd#
.	.	.	.	8cc#	.
vi;	4EE;	4G#;	4g#;	4b;	4dd#;
iib	4AA	4E	4g#	8cc#	4gg#
.	.	.	.	8b	.
=2	=2	=2	=2	=2	=2
V7d	4.DD	4.E	8c#	8a#	4ff#
.	.	.	8B	8g#	.
.	.	.	8c#	8a#	4ff#
viib/ii	8GG#	8D#	8d#	8b#	.
ii	4AA	8C#	8e	4cc#	4ee
.	.	8BB#	8d#	.	.
ii	4AA	4C#	4c#	8g#	4ee
.	.	.	.	8a#	.
=3	=3	=3	=3	=3	=3
I;	4GG;	4BB;	4f#;	4b;	4dd#;
I	4GG	4B	4d#	4f#	4b
Vb	4DD	8A#	4c#	8f#	4cc#
.	.	8G#	.	8g#	.
V	4DD	4F#	8f#	8a#	4cc#
.	.	.	8e	8g#	.
=4	=4	=4	=4	=4	=4
I	4GG	8B	8d#	4f#	4dd#
.	.	8A#	8c#	.	.
IVb	4CC	4G#	4B	8b	4ee
.	.	.	.	8g#	.
V	8DD	4F#	8c#	8a#	8ff#
V7	8DD	.	8A#	8cc#	8ee
vi	8EE	8G#	8B	[4b	4dd#
Ic	8GG	8F#	8d#	.	.
=5	=5	=5	=5	=5	=5
ii7b	8AA	8E	8g#	8b]	4cc#
ii	8AA	8C#	8e	16a#	.
.	.	.	.	16g#	.
V	4DD	4F#	8c#	4a#	4cc#
.	.	.	16f#	.	.
.	.	.	16e	.	.
I;	4GG;	4BB;	4d#;	4f#;	4b;
V7d/V	4AA	4B	4e#	4g#	4cc#
=6	=6	=6	=6	=6	=6
!!linebreak: 2
Vb	8DD	8A#	8f#	8a#	4cc#
V7c/V	8AA	8G#	8e#	8b	.
V	8DD	8F#	8f#	8a#	4cc#
Vb/V	8AA	8E#	8g#	8g#	.
V;	4DD;	4F#;	4f#;	4a#;	4cc#;
Vb/vi	4BB	4F##	4d#	[4a#	8dd#
.	.	.	.	.	8cc#
=7	=7	=7	=7	=7	=7
vi	4EE	8G#	4d#	4a#]	4b
.	.	8A#	.	.	.
vib	4EE	8B	4d#	[4g#	4b
.	.	8G#	.	.	.
Vb	8DD	8E#	8c#	8g#]	4cc#
viio/vi	8DD#	8F##	8A#	8a#	.
vi	8EE	8G#	4B	8d#	4b
IV	8CC	8E	.	[8g#	.
=8	=8	=8	=8	=8	=8
viio7b	4FF#	4C#	4e	8g#]	2a#
.	.	.	.	8f##	.
V7b/V/vi	4FF#	4C##	4e#	8g#	.
.	.	.	.	8e#	.
V/vi;	4BB;	4D#;	4d#;	4f##;	4a#;
Vb/vi	4BB	4F##	8d#	4d#	4a#
.	.	.	8c#	.	.
=9	=9	=9	=9	=9	=9
vi	8EE	8G#	8B	4d#	4b
V7c/IV	8GG	8F#	8A#	.	.
IV	8CC	8E	8B	8g#	4b
Ib	8GG	8D#	8d#	8f#	.
ii	4AA	8C#	[4e	8g#	4cc#
.	.	8BB	.	16a#	.
.	.	.	.	16b	.
viio	8FF#	8AA#	8e]	8cc#	4cc#
V	8DD	8FF#	16f#	8a#	.
.	.	.	16e	.	.
=10	=10	=10	=10	=10	=10
I	4GG	8BB	[4d#	8f#	4dd#
.	.	8B	.	16g#	.
.	.	.	.	16a#	.
IV7b	8CC	8G#	8d#]	8b	4ee
viiob	8FF#	8c#	16c#	16a#	.
.	.	.	16B	16g#	.
Vb	8DD	8A#	8c#	8a#	8ff#
V7	8DD	8F#	8a#	4cc#	8ee
I	8GG	8B	8f#	.	4dd#
vi	8EE	8G#	8g#	8b	.
=11	=11	=11	=11	=11	=11
ii7b	4AA	8E	8g#	4b	2cc#
.	.	8C#	8e	.	.
V	4DD	4F#	8c#	4a#	.
.	.	.	16f#	.	.
.	.	.	16e	.	.
I;	4GG;	4BB;	4d#;	4f#;	4b;
==	==	==	==	==	==
*-	*-	*-	*-	*-	*-
!!!CDT: 1685/3//-1750/7/28
!!!OCY: Deutschland
!!!AGN: chorale
!!!AST: Baroque
!!!AIN: vox
!!!YOY: 1941
!!!PPP: New York; London
!!!PPR: G. Schirmer
!!!ENC: David Huron
!!!EED: David Huron
!!!YEN: United States of America
!!!YER: 1992
!!!YEC: Copyright 1992 David Huron
!!!YEM: Rights to all derivative electronic formats reserved.
!!!YER: March 20, 1996
!!!AMT: simple quadruple
!!!EEV: 1.1
!!chor2scor: -l 2 -s 0.6 -o %b.pmx
